X:555
T: IN DEN GARTEN WOLLN WIR GEHN
N: E0528A
O: Europa, Mitteleuropa, Deutschland, Hessen, Wetterau
R: Liebes - Lied
M: 6/8
L: 1/8
K: F
 | F2AF2A | F2Ac2B |
E2GG2G | GcBB2A |
FAcc2A | B2df3 |
d2fc2A | cBGF2z |
FAcc2A | B2df3 |
d2fc2A | cBGF2z

@@@ Tune index: 4205
